sources/images/icons/stack-overflow.svg

<svg width="161" height="191" viewBox="0 0 161 191" fill="none" xmlns="http://www.w3.org/2000/svg">
<path d="M136.069 173.719V122.638H153.022V190.672H0V122.638H16.9535V173.719H136.069Z" fill="black"/>
<path d="M35.6684 117.794L118.895 135.188L122.418 118.454L39.1913 101.061L35.6684 117.794ZM46.6772 78.1623L123.739 114.051L130.784 98.6387L53.7228 62.5299L46.6772 78.1623ZM68.0343 40.2921L133.426 94.6755L144.215 81.6851L78.8229 27.3018L68.0343 40.2921ZM110.308 0L96.6571 10.1281L147.297 78.3825L160.948 68.2544L110.308 0ZM33.907 156.545H118.895V139.591H33.907V156.545Z" fill="black"/>
</svg>

<svg xmlns="http://www.w3.org/2000/svg" width="161" height="191" fill="none" viewBox="0 0 161 191"><path fill="#000" d="M136 173.7v-51h17v68H0v-68h17v51z"/><path fill="#000" d="m35.7 117.8 83.2 17.4 3.5-16.7L39.2 101zm11-39.6 77 35.9 7-15.5-77-36zm21.3-38 65.4 54.5 10.8-13-65.4-54.4zM110.3 0 96.7 10.1l50.6 68.3 13.6-10.1zM34 156.5h85v-17h-85z"/></svg>
